!! 00003] TT[TB
!! NN
!!!OTL: Zong ba nang song]             (tibet. Dialekt)
!!!ARE: Xinjiang, Lasa
!! Ethnic Group: Zang
!! II, 294 (2)
!!!SCT: C0236
!!!YEM: Copyright 1995, estate of Helmut Schaffrath.
**kern
*ICvox
*Ivox
*M4/4
*k[f#c#]
*D:
{4a
4cc#
4b
8a
8b
=1
2.dd
4b}
=2
{8dd
8ff#
16ee
16ff#
16dd
16ee
4cc#
8b
8cc#
=3
8a
8b
8g
8a
4b
8ee
8ee}
=4
{8dd
8ee
8b
8a
8g
8b
16a
16b
16g
16a
=5
2e
2r}
=6
{4.b
8dd
4.ee
8ee
=7
4a
8g
8a
8b
8dd
8a
8f#}
=8
{4ee
8dd
8b
4dd
8dd
8a
=9
2.g
4e}
=10
{8.g
16a
8b
8dd
4a
16f#
16a
16f#
16e
=11
8d
8e
8c#
8d
4.e
8e
=12
4a
8g
8a
8b
8dd
8a
8f#}
=13
{4ee
8dd
8b
4dd
8dd
8a
=14
2g}
{8g
8e
8a
8b
=15
8g
8r
2.r}
==
!!!AGN: Wuge, Nangma. Caoyan fengguang
!! Vereinzelt Verzierungen. Vor- und Zwischenspiele weggelassen.
!!    Phrasierung ueberpruefen!! Letzter Takt Strophe 1: 4_0___.. //, hier
!!    Noten der 2. Strophe angegeben. +++ Grundton wechselt von D zu G!! +++
!!!ONB: ESAC (Essen Associative Code) Database: CHINA
!!!AMT: simple quadruple
!!!AIN: vox
!!!EED: Helmut Schaffrath
!!!EEV: 1.0
*-
